coreui/free/cil-locomotive.svg

<svg xmlns="http://www.w3.org/2000/svg" viewBox="0 0 512 512">
  <path fill="var(--ci-primary-color, currentColor)" d="M328,427.127c0-.175-.012-.347-.013-.522l14.29-.357c0,.294-.022.584-.022.879a52.873,52.873,0,1,0,105.745,0c0-1.051-.04-2.092-.1-3.127H496V373.1l-24-64V243.777a47.736,47.736,0,0,0-26.534-42.932L424,190.111V96H312v88H243.532L214.473,96.82A47.941,47.941,0,0,0,168.936,64H16v82.832l40,16v50.334l-40,16V432h86.488a52.866,52.866,0,0,0,105.449-2.393l14.372-.36A52.867,52.867,0,0,0,328,427.127ZM395.127,448A20.873,20.873,0,1,1,416,427.127,20.9,20.9,0,0,1,395.127,448Zm-240,0A20.873,20.873,0,1,1,176,427.127,20.9,20.9,0,0,1,155.127,448Zm76.586-51-32.607.815A52.83,52.83,0,0,0,109.766,400H48V250.833l40-16V141.168l-40-16V96H168.936a15.979,15.979,0,0,1,15.179,10.94L220.468,216H344V128h48v81.889l39.155,19.577A15.915,15.915,0,0,1,440,243.777V296H96v32H444.912L464,378.9V392H434.6a52.78,52.78,0,0,0-80.594,1.945l-37.028.926A52.794,52.794,0,0,0,231.713,397Zm43.414,51A20.873,20.873,0,1,1,296,427.127,20.9,20.9,0,0,1,275.127,448Z" class="ci-primary"/>
</svg>

<svg viewBox="0 0 512 512" xmlns="http://www.w3.org/2000/svg"><path d="M328 427.127c0-.18-.02-.35-.02-.53l14.29-.36c0 .29-.03.58-.03.87v0c-.13 29.2 23.44 52.97 52.64 53.1 29.2.12 52.97-23.45 53.1-52.65 0-.16 0-.31 0-.46 0-1.06-.04-2.1-.1-3.13h48.1v-50.9l-24-64v-65.33 0c.06-18.2-10.23-34.85-26.54-42.94l-21.47-10.74V95.93h-112v88H243.5l-29.06-87.18v0c-6.52-19.62-24.88-32.84-45.54-32.82H15.96v82.83l40 16V213.1l-40 16V431.93h86.488v-.001c2.69 29.07 28.43 50.46 57.51 47.77 26.25-2.43 46.7-23.83 47.93-50.17l14.37-.36h-.001c1.17 29.17 25.78 51.86 54.95 50.69 28.34-1.15 50.72-24.45 50.73-52.82Zm67.12 20.87l-.001-.001c-11.53 0-20.88-9.35-20.88-20.88s9.34-20.88 20.87-20.88c11.52 0 20.87 9.34 20.87 20.87v0c-.02 11.52-9.36 20.85-20.88 20.87Zm-240 0v-.001c-11.53 0-20.88-9.35-20.88-20.88s9.34-20.88 20.87-20.88c11.52 0 20.87 9.34 20.87 20.87v0c-.02 11.52-9.36 20.85-20.88 20.87Zm76.58-51l-32.607.81h-.001c-16.17-24.29-48.97-30.88-73.26-14.72 -6.56 4.36-12.06 10.13-16.09 16.89H47.97V250.81l40-16v-93.67l-40-16V95.97h120.936v0c6.88-.01 13 4.4 15.17 10.94l36.35 109.06h123.53v-88h48v81.88l39.15 19.57v0c5.43 2.69 8.86 8.24 8.84 14.31v52.22h-344v32H444.86l19.08 50.9v13.1h-29.4 -.001c-19.35-21.81-52.71-23.79-74.52-4.44 -2.21 1.95-4.24 4.09-6.09 6.38l-37.03.92 0-.001c-17.78-23.12-50.92-27.45-74.04-9.68 -4.34 3.33-8.13 7.31-11.24 11.8Zm43.41 51v-.001c-11.53 0-20.88-9.35-20.88-20.88 -.001-11.53 9.34-20.88 20.87-20.88 11.52-.001 20.87 9.34 20.87 20.87v0c-.02 11.52-9.36 20.85-20.88 20.87Z"/></svg>
